web/src/assets/images/diagram/mmp.svg

<svg
    xmlns="http://www.w3.org/2000/svg" viewBox="0 0 760 534" width="760" height="534" style="transparent">
    <defs>
        <style>@import url('https://fonts.googleapis.com/css?family=Nunito Sans&amp;display=swap');</style>
    </defs>
    <defs>
        <filter id="shadow" height="130%">
            <feGaussianBlur in="SourceAlpha" stdDeviation="3"/>
            <feOffset dx="2" dy="2" result="offsetblur"/>
            <feComponentTransfer>
                <feFuncA type="linear" slope="0.5"/>
            </feComponentTransfer>
            <feMerge>
                <feMergeNode/>
                <feMergeNode in="SourceGraphic"/>
            </feMerge>
        </filter>
    </defs>
    <g transform="translate(286,185), scale(1.3,1.3)" fill="transparent" style="will-change: transform;transition: transform 0.15s ease">
        <g>
            <g>
                <path stroke-width="2" stroke="#3E9BCD" d="M-100,-32.5 L-58,-32.5 A8,8,0,0,1,-50,-24.5 L-50,24.5 A8,8,0,0,0,-42,32.5 L0,32.5" fill="transparent"/>
                <g/>
                <g>
                    <foreignObject x="-240" y="-65" width="140" height="65" fill="#FFFFFF" color="#111111" font-size="14" class=".select-none">
                        <div
                            xmlns="http://www.w3.org/1999/xhtml" style="width: 140px; height: 65px; font-family: &quot;Nunito Sans&quot;, sans-serif; overflow-wrap: break-word; display: flex; align-items: center; justify-content: center;">
                            <div style="border-radius:8px;width: 80px; height:20px;font-size: 14px; background-color:#DDD"></div>
                        </div>
                    </foreignObject>
                    <g/></g>
                <path stroke-width="2" stroke="#3E9BCD" d="M140,32.5 L-240,32.5" fill="transparent"/>
                <g/>
                <g>
                    <foreignObject x="-240" y="10" width="140" height="65" fill="#FFFFFF" color="#111111" font-size="14" class=".select-none">
                        <div
                            xmlns="http://www.w3.org/1999/xhtml" style="width: 140px; height: 65px; font-family: &quot;Nunito Sans&quot;, sans-serif; overflow-wrap: break-word; display: flex; align-items: center; justify-content: center;">
                            <div style="border-radius:8px;width: 80px; height:20px;font-size: 14px; background-color:#DDD"></div>
                        </div>
                    </foreignObject>
                    <g/></g>
                <path stroke-width="2" stroke="#3E9BCD" d="M-100,117.5 L-58,117.5 A8,8,0,0,0,-50,109.5 L-50,40.5 A8,8,0,0,1,-42,32.5 L0,32.5" fill="transparent"/>
                <g/>
                <g>
                    <foreignObject x="-240" y="85" width="140" height="65" fill="#FFFFFF" color="#111111" font-size="14" class=".select-none">
                        <div
                            xmlns="http://www.w3.org/1999/xhtml" style="width: 140px; height: 65px; font-family: &quot;Nunito Sans&quot;, sans-serif; overflow-wrap: break-word; display: flex; align-items: center; justify-content: center;">
                            <div style="border-radius:8px;width: 80px; height:20px;font-size: 14px; background-color:#DDD"></div>
                        </div>
                    </foreignObject>
                    <g/></g>
            </g>
            <g>
                <path stroke-width="2" stroke="#3E9BCD" d="M140,32.5 L182,32.5 A8,8,0,0,0,190,24.5 L190,-24.5 A8,8,0,0,1,198,-32.5 L240,-32.5" fill="transparent"/>
                <g/>
                <g>
                    <foreignObject x="240" y="-65" width="140" height="65" fill="#FFFFFF" color="#111111" font-size="14" class=".select-none">
                        <div
                            xmlns="http://www.w3.org/1999/xhtml" style="width: 140px; height: 65px; font-family: &quot;Nunito Sans&quot;, sans-serif; overflow-wrap: break-word; display: flex; align-items: center; justify-content: center;">
                            <div style="border-radius:8px;width: 80px; height:20px;font-size: 14px; background-color:#DDD"></div>
                        </div>
                    </foreignObject>
                    <g/></g>
                <path stroke-width="2" stroke="#3E9BCD" d="M140,32.5 L240,32.5" fill="transparent"/>
                <g/>
                <g>
                    <foreignObject x="240" y="10" width="140" height="65" fill="#FFFFFF" color="#111111" font-size="14" class=".select-none">
                        <div
                            xmlns="http://www.w3.org/1999/xhtml" style="width: 140px; height: 65px; font-family: &quot;Nunito Sans&quot;, sans-serif; overflow-wrap: break-word; display: flex; align-items: center; justify-content: center;">
                            <div style="border-radius:8px;width: 80px; height:20px;font-size: 14px; background-color:#DDD"></div>
                        </div>
                    </foreignObject>
                    <g/></g>
                <path stroke-width="2" stroke="#3E9BCD" d="M140,32.5 L182,32.5 A8,8,0,0,1,190,40.5 L190,109.5 A8,8,0,0,0,198,117.5 L240,117.5" fill="transparent"/>
                <g/>
                <g>
                    <foreignObject x="240" y="85" width="140" height="65" fill="#FFFFFF" color="#111111" font-size="14" class=".select-none">
                        <div
                            xmlns="http://www.w3.org/1999/xhtml" style="width: 140px; height: 65px; font-family: &quot;Nunito Sans&quot;, sans-serif; overflow-wrap: break-word; display: flex; align-items: center; justify-content: center;">
                            <div style="border-radius:8px;width: 80px; height:20px;font-size: 14px; background-color:#DDD"></div>
                        </div>
                    </foreignObject>
                    <g/></g>
            </g>
            <g>
                <rect width="140" height="64" x="0" y="0" stroke-width="2" stroke="#266B9A" rx="32" ry="32" fill="#f5f5f6"/>
                <g/></g>
        </g>
    </g>
</svg>

<?xml version="1.0" encoding="UTF-8"?>
<svg viewBox="0 0 760 534" xmlns="http://www.w3.org/2000/svg">
<defs>
<style>@import url('https://fonts.googleapis.com/css?family=Nunito Sans&amp;display=swap');</style>
</defs>
<g transform="translate(286 185) scale(1.3)" fill="transparent" style="transition:transform 0.15s ease;will-change:transform">
<path d="m-100-32.5h42a8 8 0 0 1 8 8v49a8 8 0 0 0 8 8h42" fill="transparent" stroke="#3E9BCD" stroke-width="2"/>
<foreignObject class=".select-none" x="-240" y="-65" width="140" height="65" color="#111111" fill="#FFFFFF" font-size="14">
<div display="flex" font-family='"Nunito Sans", sans-serif' style="align-items:center;height:65px;justify-content:center;overflow-wrap:break-word;width:140px" xmlns="http://www.w3.org/1999/xhtml">
<div font-size="14px" style="background-color:#DDD;border-radius:8px;height:20px;width:80px"/>
</div>
</foreignObject>
<path d="m140 32.5h-380" fill="transparent" stroke="#3E9BCD" stroke-width="2"/>
<foreignObject class=".select-none" x="-240" y="10" width="140" height="65" color="#111111" fill="#FFFFFF" font-size="14">
<div display="flex" font-family='"Nunito Sans", sans-serif' style="align-items:center;height:65px;justify-content:center;overflow-wrap:break-word;width:140px" xmlns="http://www.w3.org/1999/xhtml">
<div font-size="14px" style="background-color:#DDD;border-radius:8px;height:20px;width:80px"/>
</div>
</foreignObject>
<path d="m-100 117.5h42a8 8 0 0 0 8-8v-69a8 8 0 0 1 8-8h42" fill="transparent" stroke="#3E9BCD" stroke-width="2"/>
<foreignObject class=".select-none" x="-240" y="85" width="140" height="65" color="#111111" fill="#FFFFFF" font-size="14">
<div display="flex" font-family='"Nunito Sans", sans-serif' style="align-items:center;height:65px;justify-content:center;overflow-wrap:break-word;width:140px" xmlns="http://www.w3.org/1999/xhtml">
<div font-size="14px" style="background-color:#DDD;border-radius:8px;height:20px;width:80px"/>
</div>
</foreignObject>
<path d="m140 32.5h42a8 8 0 0 0 8-8v-49a8 8 0 0 1 8-8h42" fill="transparent" stroke="#3E9BCD" stroke-width="2"/>
<foreignObject class=".select-none" x="240" y="-65" width="140" height="65" color="#111111" fill="#FFFFFF" font-size="14">
<div display="flex" font-family='"Nunito Sans", sans-serif' style="align-items:center;height:65px;justify-content:center;overflow-wrap:break-word;width:140px" xmlns="http://www.w3.org/1999/xhtml">
<div font-size="14px" style="background-color:#DDD;border-radius:8px;height:20px;width:80px"/>
</div>
</foreignObject>
<path d="m140 32.5h100" fill="transparent" stroke="#3E9BCD" stroke-width="2"/>
<foreignObject class=".select-none" x="240" y="10" width="140" height="65" color="#111111" fill="#FFFFFF" font-size="14">
<div display="flex" font-family='"Nunito Sans", sans-serif' style="align-items:center;height:65px;justify-content:center;overflow-wrap:break-word;width:140px" xmlns="http://www.w3.org/1999/xhtml">
<div font-size="14px" style="background-color:#DDD;border-radius:8px;height:20px;width:80px"/>
</div>
</foreignObject>
<path d="m140 32.5h42a8 8 0 0 1 8 8v69a8 8 0 0 0 8 8h42" fill="transparent" stroke="#3E9BCD" stroke-width="2"/>
<foreignObject class=".select-none" x="240" y="85" width="140" height="65" color="#111111" fill="#FFFFFF" font-size="14">
<div display="flex" font-family='"Nunito Sans", sans-serif' style="align-items:center;height:65px;justify-content:center;overflow-wrap:break-word;width:140px" xmlns="http://www.w3.org/1999/xhtml">
<div font-size="14px" style="background-color:#DDD;border-radius:8px;height:20px;width:80px"/>
</div>
</foreignObject>
<rect width="140" height="64" rx="32" ry="32" fill="#f5f5f6" stroke="#266B9A" stroke-width="2"/>
</g>
</svg>
